build/Karasa-Jaga/scalable/apps/session-properties-symbolic.svg

<svg height="16" width="16" xmlns="http://www.w3.org/2000/svg"><g fill="#bebebe" transform="translate(-.319263 .502248)"><path d="m3.0474405.89575773c-.0511101-.59956417-1.8626393-.32917738-1.7957807.20131337l1.7313911 13.3436069 1.8305085-.258455z"/><path d="m8.0996094 1.796875c-1.8331097-.0650266-2.9745491.8629406-4.5742188 1.6347656l.6933594 5.3769532c1.4335177-.5451281 2.7010197-1.5093852 3.9316406-2.3007813.2396972 0 2.5410154.3844037 2.5410154.048828 0-.3355761-.9589841-4.4121093-.9589841-4.4121094zm-.064453.921875.9375.1992188c.081841.3501628.1740572.7394888.3476563 1.5078124.1061477.4697939.206884.9263529.2910156 1.3222657-.00799-.000694-.011526.0007162-.019531 0-.2831082-.025329-.5842994-.0631683-.8320317-.09375s-.3050425-.0605469-.609375-.0605469a.91450424.91450424 0 0 0 -.4941406.1445312c-.9172056.589843-1.8084402 1.1025294-2.7070312 1.59375l-.4355469-3.3808593c1.2949828-.6787036 2.2381515-1.2671301 3.5214845-1.2324219z"/><path d="m15.388672 1.90625c-1.659365.9594639-3.309351 1.1624471-5.177734 1.1015625l.675781 3.1542969c1.855891-.8465389 3.372341-2.943554 4.501953-4.2558594zm-2.44336 1.671875c-.498086.5329598-1.035159.8862181-1.572265 1.2714844l-.246094-1.1523438c.609926-.014656 1.224486-.010244 1.818359-.1191406z"/></g></svg>

<?xml version="1.0" encoding="UTF-8" standalone="no"?>
<!-- Created with Inkscape (http://www.inkscape.org/) -->

<svg
   xmlns:dc="http://purl.org/dc/elements/1.1/"
   xmlns:cc="http://creativecommons.org/ns#"
   xmlns:rdf="http://www.w3.org/1999/02/22-rdf-syntax-ns#"
   xmlns:svg="http://www.w3.org/2000/svg"
   xmlns="http://www.w3.org/2000/svg"
   xmlns:xlink="http://www.w3.org/1999/xlink"
   xmlns:sodipodi="http://sodipodi.sourceforge.net/DTD/sodipodi-0.dtd"
   xmlns:inkscape="http://www.inkscape.org/namespaces/inkscape"
   id="svg7384"
   height="16"
   width="16"
   version="1.1"
   inkscape:version="0.92.2 (unknown)"
   sodipodi:docname="session-properties-symbolic.svg">
  <defs
     id="defs7527">
    <inkscape:perspective
       id="perspective18"
       inkscape:persp3d-origin="8 : 5.3333333 : 1"
       inkscape:vp_z="16 : 8 : 1"
       inkscape:vp_y="0 : 1000 : 0"
       inkscape:vp_x="0 : 8 : 1"
       sodipodi:type="inkscape:persp3d" />
    <linearGradient
       gradientUnits="userSpaceOnUse"
       y2="13.168831"
       x2="5.8043289"
       y1="4.7809148"
       x1="5.8043289"
       gradientTransform="scale(1.1952286,0.83666)"
       id="StandardGradient">
      <stop
         id="stop3389"
         offset="0"
         style="stop-color:#000000;stop-opacity:0.86274511;" />
      <stop
         id="stop3391"
         offset="1"
         style="stop-color:#000000;stop-opacity:0.47058824;" />
    </linearGradient>
    <inkscape:perspective
       sodipodi:type="inkscape:persp3d"
       inkscape:vp_x="0 : 0.5 : 1"
       inkscape:vp_y="0 : 1000 : 0"
       inkscape:vp_z="1 : 0.5 : 1"
       inkscape:persp3d-origin="0.5 : 0.33333333 : 1"
       id="perspective3648" />
    <linearGradient
       y2="13.168831"
       x2="5.8043289"
       y1="4.7809148"
       x1="5.8043289"
       gradientTransform="matrix(-1.1952286,0,0,0.83666,-25,0)"
       gradientUnits="userSpaceOnUse"
       id="linearGradient3627"
       xlink:href="#StandardGradient"
       inkscape:collect="always" />
    <clipPath
       id="clipPath3634"
       clipPathUnits="userSpaceOnUse">
      <path
         id="path3636"
         d="m -20,0 0,16 16,0 0,-16 -16,0 z m 2,4 5,3.34375 L -13,4 -8,7.34375 -8,4 -6,4 -6,12 -8,12 -8,8.65625 -13,12 -13,8.65625 -18,12 -18,4 z"
         style="fill:#ff00ff;fill-opacity:1;stroke:none;display:inline" />
    </clipPath>
    <linearGradient
       y2="13.168831"
       x2="5.8043289"
       y1="4.7809148"
       x1="5.8043289"
       gradientTransform="matrix(-1.1952286,0,0,0.83666,-5,0)"
       gradientUnits="userSpaceOnUse"
       id="linearGradient5025"
       xlink:href="#StandardGradient"
       inkscape:collect="always" />
    <clipPath
       id="clipPath40"
       clipPathUnits="userSpaceOnUse">
      <path
         id="path42"
         d="M 0,500 1024,500 1024,0 0,0 0,500 Z"
         inkscape:connector-curvature="0" />
    </clipPath>
    <clipPath
       id="clipPath18"
       clipPathUnits="userSpaceOnUse">
      <path
         id="path20"
         d="M 0,2743.88 0,0 l 2743.81,0 0,2743.88 -2743.81,0 z"
         inkscape:connector-curvature="0" />
    </clipPath>
  </defs>
  <sodipodi:namedview
     pagecolor="#ffffff"
     bordercolor="#666666"
     borderopacity="1"
     objecttolerance="10"
     gridtolerance="10"
     guidetolerance="10"
     inkscape:pageopacity="0"
     inkscape:pageshadow="2"
     inkscape:window-width="1366"
     inkscape:window-height="716"
     id="namedview7525"
     showgrid="false"
     inkscape:zoom="10.429825"
     inkscape:cx="11.496081"
     inkscape:cy="3.5955049"
     inkscape:window-x="0"
     inkscape:window-y="27"
     inkscape:window-maximized="1"
     inkscape:current-layer="svg7384" />
  <metadata
     id="metadata90">
    <rdf:RDF>
      <cc:Work
         rdf:about="">
        <dc:format>image/svg+xml</dc:format>
        <dc:type
           rdf:resource="http://purl.org/dc/dcmitype/StillImage" />
        <dc:title>Gnome Symbolic Icon Theme</dc:title>
      </cc:Work>
    </rdf:RDF>
  </metadata>
  <title
     id="title9167">Gnome Symbolic Icon Theme</title>
  <g
     id="g1213"
     transform="translate(-0.31926297,0.50224834)">
    <path
       sodipodi:nodetypes="ccccc"
       inkscape:connector-curvature="0"
       id="path1194"
       d="M 3.0474405,0.89575773 C 2.9963304,0.29619356 1.1848012,0.56658035 1.2516598,1.0970711 L 2.9830509,14.440678 4.8135594,14.182223 Z"
       style="fill:#bebebe;fill-opacity:1;stroke:none;stroke-width:0.97624433px;stroke-linecap:butt;stroke-linejoin:miter;stroke-opacity:1" />
    <path
       id="path1196"
       d="M 8.0996094,1.796875 C 6.2664997,1.7318484 5.1250603,2.6598156 3.5253906,3.4316406 L 4.21875,8.8085938 C 5.6522677,8.2634657 6.9197697,7.2992086 8.1503906,6.5078125 c 0.2396972,0 2.5410154,0.3844037 2.5410154,0.048828 0,-0.3355761 -0.9589841,-4.4121093 -0.9589841,-4.4121094 z m -0.064453,0.921875 0.9375,0.1992188 c 0.081841,0.3501628 0.1740572,0.7394888 0.3476563,1.5078124 0.1061477,0.4697939 0.206884,0.9263529 0.2910156,1.3222657 -0.00799,-6.94e-4 -0.011526,7.162e-4 -0.019531,0 C 9.3086891,5.7227179 9.0074979,5.6848786 8.7597656,5.6542969 8.5120333,5.6237152 8.4547231,5.59375 8.1503906,5.59375 A 0.91450424,0.91450424 0 0 0 7.65625,5.7382812 C 6.7390444,6.3281242 5.8478098,6.8408106 4.9492188,7.3320312 L 4.5136719,3.9511719 C 5.8086547,3.2724683 6.7518234,2.6840418 8.0351564,2.71875 Z"
       style="fill:#bebebe;fill-opacity:1;stroke:none;stroke-width:1px;stroke-linecap:butt;stroke-linejoin:miter;stroke-opacity:1"
       inkscape:connector-curvature="0" />
    <path
       id="path1198"
       d="m 15.388672,1.90625 c -1.659365,0.9594639 -3.309351,1.1624471 -5.177734,1.1015625 l 0.675781,3.1542969 C 12.74261,5.3155705 14.25906,3.2185554 15.388672,1.90625 Z m -2.44336,1.671875 C 12.447226,4.1110848 11.910153,4.4643431 11.373047,4.8496094 L 11.126953,3.6972656 c 0.609926,-0.014656 1.224486,-0.010244 1.818359,-0.1191406 z"
       style="fill:#bebebe;fill-opacity:1;stroke:none;stroke-width:1px;stroke-linecap:butt;stroke-linejoin:miter;stroke-opacity:1"
       inkscape:connector-curvature="0" />
  </g>
</svg>
